X:28
T: ICH BIN EIN DEUTSCHES MAEDCHEN
N: B0033
O: Europa, Mitteleuropa, Deutschland
R: politisch, national, Vaterlands - Lied
M: 4/4
L: 1/8
K: G
G2B3A | c3BA4 | G2z
BG3G | c3cA3A | d3dB3B | e4
d4 | c3dB2G2 | A4d4 | G2

